X: 12199
T: Factory Smoke, The
R: hornpipe
M: 4/4
K: Gminor
dc|BAG^F GABc|d2G2 G2bg|fedc BcdB|(3cdB (3ABG F2dc|
BAG^F GABc|dg^fa g2g=f|edcB cdAc|B2G2 G2:|
|:ga|bgdB gdBG|DGBd gabg|afcA fcAF|CFAc fcAc|
BAG^F GABc|dg^fa g2g=f|edcB cdAc|B2G2 G2:|

